X:45
T: Jenny Prior's
C: BB
L: 1/8
M: 4/4
R: hornpipe
Q: 1/4=165
K: D
FE|"D"DFAd "F#m"cBAF|"Bm7"ABde "D"f2 ef|"G"g2 eg "D"f2 df|"Em"efgf "A"ecBA|
"D"DFAd "F#m"cBAF|"Bm7"ABde "D"f2 ef|"G"gfeg "D"fedf|"A"eAce "D"d2 :|
e2|"D"fa"A7"eg "D"fd (3ded|"F#m7"faec "Bm"d2 ef|"G"g2 bg "D"f2 af|"Em"efgf "A"eAce|
"D"fa"A"eg "D"fd (3ded|"F#m7"faec "Bm"d2 ef|"G"gfeg "D"fedf|"A"eAce "D"d2 :|

%%%%%%%%%%%%%%%%%%%%%%%%%%%%%%%%%%%%%%%%%%%

